!!! OTL: Berkowitz388
!!! Chapter: 1
!!! Section: III
!!! Page: 95
!!! Mode: 
!!! Encoder: DJB
**kern
*staff1
*I"Piano
=1-
*clefG2
*k[b-e-]
*B-:
*M4/4
4b-\
4d/
4c#/
4g/
=2
4.f/
8d/
4B-/
8c/L
8d/J
=3
8f/L
8e-/
8d/
8c/J
8f/L
8e-/
8d/
8c/J
=4
4.c#/
16d/LL
16e-/JJ
2d/
=5
4dd\
4f/
4en/
4dd-\
=6
4.cc\
8e-/
4d/
8b-/L
8a/J
=7
!!linebreak:original
8g/L
8f/
8e-/
8d/J
8f/L
8e-/
8d/
8c/J
=8
4.B-/
16d/LL
16f/JJ
2b-\
==
*-
